src/images/trash_button.svg

<svg width="18" height="19" viewBox="0 0 18 19" fill="none" xmlns="http://www.w3.org/2000/svg">
<g id="Trash">
<g id="Group">
<g id="Group_2">
<path id="Vector" d="M2.45787 17.86C2.51882 18.52 3.06735 19 3.73778 19H14.2615C14.9319 19 15.4804 18.5 15.5414 17.86L16.7197 5.69995H1.27954L2.45787 17.86Z" fill="white"/>
<path id="Vector_2" d="M16.7201 1.9H11.5801V1.26C11.5801 0.560001 11.0113 0 10.3002 0H7.72009C7.00903 0 6.44018 0.560001 6.44018 1.26V1.9H1.27991C0.568849 1.9 0 2.46 0 3.16C0 3.86001 0.568849 4.42001 1.27991 4.42001H16.7201C17.4312 4.42001 18 3.86001 18 3.16C18 2.46 17.4312 1.9 16.7201 1.9Z" fill="white"/>
</g>
</g>
</g>
</svg>

<?xml version="1.0"?>
<svg width="18" height="19" xmlns="http://www.w3.org/2000/svg" xmlns:svg="http://www.w3.org/2000/svg">
 <g class="layer">
  <title>Layer 1</title>
  <g id="Trash">
   <g id="Group">
    <g id="Group_2">
     <path d="m2.46,17.86c0.06,0.66 0.61,1.14 1.28,1.14l10.52,0c0.67,0 1.22,-0.5 1.28,-1.14l1.18,-12.16l-15.44,0l1.18,12.16z" fill="black" id="Vector"/>
     <path d="m16.72,1.9l-5.14,0l0,-0.64c0,-0.7 -0.57,-1.26 -1.28,-1.26l-2.58,0c-0.71,0 -1.28,0.56 -1.28,1.26l0,0.64l-5.16,0c-0.71,0 -1.28,0.56 -1.28,1.26c0,0.7 0.57,1.26 1.28,1.26l15.44,0c0.71,0 1.28,-0.56 1.28,-1.26c0,-0.7 -0.57,-1.26 -1.28,-1.26z" fill="black" id="Vector_2"/>
    </g>
   </g>
  </g>
 </g>
</svg>
